!!!OTL: ES STUND EIN HAEUSLEIN AN DEM RHEIN
!!!ARE: Europa, Mitteleuropa, Deutschland, Odenwald, Spachbruecken
!!!SCT: E0019H
!!!YEM: Copyright 1995, estate of Helmut Schaffrath.
**kern
*ICvox
*Ivox
*M4/4
*k[f#]
*G:
{4d
=1
4g
4g
4g
4dd
=2
8b
8a
4g
4a}
{8a
8b
=3
4cc
4cc
4cc
4dd
=4
4b
4b
4b}
{4dd
=5
4a
4a
4a
8dd
8cc
=6
2b
2a
=7
2g
4r}
==
!!!AGN: Sage, Maerchen -, Zauber - Lied, Ballade ?
!!!ONB: ESAC (Essen Associative Code) Database: ERK1
!!!AMT: simple quadruple
!!!AIN: vox
!!!EED: Helmut Schaffrath
!!!EEV: 1.0
*-
